!!!!SEGMENT: pl-sa--481-a-viii-121--040_stefani-jan--aria.krn
!!!cenid: 18xx:411
!!!COM: Stefani, Jan
!!!COM-rism: pe30012827
!!!CDT: ~1746-1829/02/23
!!!CNT: Polish
!!!OTL: Aria
!!!PDT:
!!!AGN: Secular; Aria
!!!SMS-siglum: PL-SA
!!!SMS-shelfmark: 481/A VIII 121
!!!NIFC-rismID: 1001070715
!!!URL-scan: http://bc.bdsandomierz.pl/dlibra/publication/1212/edition/1171/content
!!!ONB-nifc: Str. 26, s. 4 (t. 5) – 5
!!!SMS-variant:
!!!SMS-altvar:
**kern	**kern
*part1	*part1
*staff2	*staff1
*I"Piano	*I"Piano
*I'p-no	*I'p-no
*group1	*group1
*clefF4	*clefG2
*k[]	*k[]
*M6/8	*M6/8
*>[A,A,B,B]	*>[A,A,B,B]
=1	=1
*>A	*>A
!LO:TX:a:t=Aria	!
2.ryy	4.ryy
.	4ryy
!	!LO:TX:a:t=P:problem:8\right:global
.	8g\
=2	=2
!LO:TX:a:t=P:problem:8/left:global	!LO:TX:a:t=P:problem:4/left:global
8C/L	4cc/
8E/	.
!	!LO:TX:a:t=P:problem:8/left:global
8G/J	8cc/
*rep	*
8C/L	8ee\L
8E/	8cc\
8G/J	8g\J
*Xrep	*
=3	=3
!	!LO:TX:a:t=P:problem:4\right:global
8D/L	4ff\
8F/	.
8G/J	8dd\
*rep	*
8D/L	4b\
8F/	.
8G/J	8g/
*Xrep	*
=4	=4
8C/L	4cc\
8E/	.
8G/J	8cc\
*rep	*
8C/L	8cc/L
8E/	8dd/
8G/J	8ee/J
*Xrep	*
=5	=5
*rep	*
8C/L	4.cc\ 4.ee
8E/	.
8G/J	.
*Xrep	*
8BB/L	4b\ 4dd
8D/	.
8G/J	8g/
=6	=6
8C/L	4cc\
8E/	.
8G/J	8cc\
*rep	*
8C/L	8ee/L
8E/	8cc/
8G/J	8g/J
*Xrep	*
=7	=7
8D/L	4ff\
8F/	.
8G/J	8dd\
*rep	*
8D/L	4b\
8F/	.
8G/J	8g/
*Xrep	*
=8	=8
*rep	*
8D/L	4dd\
8F/	.
8G/J	8dd\
*Xrep	*
*rep	*
8D/L	8ff/L
8F/	8dd/
8G/J	8b/J
*Xrep	*
!LO:LB:g=original	!LO:LB:g=original
=9	=9
*rep	*
8D/L	4.dd/
8F/	.
8G/J	.
*Xrep	*
!LO:TX:a:t=P:problem:4/left:global	!
4.C/	8cc\
!	!LO:TX:a:t=P:problem: brak pauzy
.	4ryy
=10:|!|:	=10:|!|:
*>B	*>B
8BB/L	8b/L
8D/	8dd/
!LO:SIC:l:s=8FF:v	!
8G/J	8ff/J
*rep	*
8BB/L	8b\L
8D/	8dd\
!LO:SIC:l:s=8FF:v	!
8G/J	8ff\J
*Xrep	*
=11	=11
8C/L	4.cc\
8E/	.
8G/J	.
*rep	*
8C/L	4ee\
8E/	.
8G/J	8cc\
*Xrep	*
=12	=12
8BB/L	8b\L
8D/	8dd\
!LO:SIC:l:s=8FF:v	!
8G/J	8ff\J
*rep	*
8BB/L	8b\L
8D/	8dd\
!LO:SIC:l:s=8FF:v	!
8G/J	8ff\J
*Xrep	*
=13	=13
8C/L	4.dd#X\
8E/	.
8G/J	.
*rep	*
8C/L	4ee\
8E/	.
8G/J	8g/
*Xrep	*
=14	=14
*rep	*
8C/L	4cc\
8E/	.
8G/J	8cc\
*Xrep	*
*rep	*
8C/L	8ee/L
8E/	8cc/
8G/J	8g/J
*Xrep	*
=15	=15
8D/L	4ff\
8F/	.
8G/J	8dd\
*rep	*
8D/L	4b\
8F/	.
8G/J	8g/
*Xrep	*
=16	=16
*rep	*
8D/L	4dd\
8F/	.
8G/J	8dd\
*Xrep	*
*rep	*
8D/L	8ff/L
8F/	8dd/
8G/J	8b/J
*Xrep	*
=17	=17
8D/L	4.dd\
8F/	.
8G/J	.
4C/	4cc\
!LO:TX:a:t=P:problem: brak pauzy	!LO:TX:a:t=P:problem: brak pauzy
8ryy	8ryy
=:|!;;	=:|!;;
*-	*-
!!!system-decoration: [(g1)]
!!!ENC:Anna Matuszewska
!!!END:2020-11-22
!!!ENC:Anastazja Marusiak
!!!END:2020-06-15
